X: 38
T:Tour
M:4/4
L:1/8
Q:1/4=190
O:France
A:Bretagne
K:C
E2 AB c2 AB|cc BA G4|E2 AB cA AB|c2B2A4:|
|:c2 AB c2 AB|cc dc B4|cc AB cA AB|c2B2A4:||
Divers
W:
W: From "Falaleiro" http://home.t-online.de/home/pheld/homepage.htm

